resources/svg/download-desktop.svg

<svg xmlns="http://www.w3.org/2000/svg" fill="none" viewBox="0 0 14 14"><path fill="currentColor" fill-rule="evenodd" d="M6.25 5.61424H4.94752C4.75627 5.61424 4.58178 5.72333 4.49802 5.89526C4.41426 6.06719 4.43591 6.27183 4.5538 6.42243C5.20932 7.25986 5.66685 7.65949 6.32505 8.16367C6.72846 8.47269 7.27163 8.47269 7.67504 8.16367C8.33323 7.65949 8.79077 7.25986 9.44629 6.42243C9.56417 6.27183 9.58582 6.06719 9.50207 5.89526C9.41831 5.72333 9.24382 5.61424 9.05257 5.61424H7.75V0.766602C7.75 0.352388 7.41422 0.0166016 7.00001 0.0166016C6.58579 0.0166016 6.25 0.352388 6.25 0.766602V5.61424ZM4.05266 2.29989C4.46585 2.2708 4.77724 1.91227 4.74815 1.49908C4.71907 1.08589 4.36054 0.774504 3.94735 0.803587C3.39391 0.84254 2.84811 0.903724 2.32989 1.00112C1.40942 1.17411 0.703621 1.87958 0.48842 2.76569C0.249922 3.74774 0.24995 4.50988 0.250001 5.91968V5.91969L0.250005 5.98354L0.250001 6.0474V6.04741C0.24995 7.45721 0.249922 8.21934 0.48842 9.20139C0.703621 10.0875 1.40942 10.793 2.32989 10.966C3.53647 11.1927 4.92759 11.2273 6.25 11.2326V12.4836H5C4.58579 12.4836 4.25 12.8194 4.25 13.2336C4.25 13.6478 4.58579 13.9836 5 13.9836H9.00001C9.41422 13.9836 9.75001 13.6478 9.75001 13.2336C9.75001 12.8194 9.41422 12.4836 9.00001 12.4836H7.75V11.2326C9.07242 11.2273 10.4635 11.1927 11.6701 10.966C12.5906 10.793 13.2964 10.0875 13.5116 9.20139C13.7501 8.21934 13.7501 7.4572 13.75 6.0474L13.75 5.98354L13.75 5.91968C13.7501 4.50988 13.7501 3.74775 13.5116 2.76569C13.2964 1.87958 12.5906 1.17411 11.6701 1.00112C11.1519 0.903724 10.6061 0.84254 10.0527 0.803587C9.63947 0.774504 9.28094 1.08589 9.25186 1.49908C9.22277 1.91227 9.53415 2.2708 9.94735 2.29989C10.4625 2.33615 10.948 2.39165 11.3931 2.47531C11.71 2.53486 11.972 2.78234 12.054 3.11969C12.2463 3.91187 12.25 4.49852 12.25 5.98354C12.25 7.46857 12.2463 8.05521 12.054 8.8474C11.972 9.18474 11.71 9.43222 11.3931 9.49178C10.1427 9.72677 8.62637 9.73338 7.08249 9.73354C7.0554 9.73058 7.02788 9.72905 7 9.72905C6.97213 9.72905 6.94461 9.73058 6.91752 9.73354C5.37364 9.73338 3.8573 9.72677 2.60695 9.49178C2.29006 9.43222 2.02798 9.18474 1.94605 8.84739C1.75366 8.05521 1.75 7.46857 1.75 5.98354C1.75 4.49852 1.75366 3.91187 1.94605 3.11969C2.02798 2.78234 2.29006 2.53486 2.60695 2.47531C3.05206 2.39165 3.53748 2.33615 4.05266 2.29989Z" clip-rule="evenodd"></path></svg>

<svg xmlns="http://www.w3.org/2000/svg" fill="none" viewBox="0 0 14 14"><path fill="currentColor" fill-rule="evenodd" d="M6.25 5.614H4.948a.5.5 0 0 0-.394.808c.655.838 1.113 1.237 1.771 1.742.403.309.947.309 1.35 0 .658-.505 1.116-.904 1.771-1.742a.5.5 0 0 0-.393-.808H7.75V.767a.75.75 0 1 0-1.5 0v4.847ZM4.053 2.3A.75.75 0 0 0 3.947.804C3.394.843 2.848.904 2.33 1A2.35 2.35 0 0 0 .488 2.766C.25 3.748.25 4.51.25 5.92v.127c0 1.41 0 2.172.238 3.154a2.35 2.35 0 0 0 1.842 1.765c1.206.227 2.598.261 3.92.267v1.25H5a.75.75 0 0 0 0 1.5h4a.75.75 0 0 0 0-1.5H7.75v-1.25c1.322-.006 2.713-.04 3.92-.267a2.35 2.35 0 0 0 1.842-1.765c.238-.982.238-1.744.238-3.154V5.92c0-1.41 0-2.172-.238-3.154A2.35 2.35 0 0 0 11.67 1a14.22 14.22 0 0 0-1.617-.197.75.75 0 1 0-.106 1.496 12.81 12.81 0 0 1 1.446.175.85.85 0 0 1 .661.645c.192.792.196 1.379.196 2.864 0 1.485-.004 2.071-.196 2.863a.85.85 0 0 1-.66.645c-1.251.235-2.768.241-4.312.242a.76.76 0 0 0-.164 0c-1.544 0-3.06-.007-4.311-.242a.85.85 0 0 1-.661-.645c-.192-.792-.196-1.378-.196-2.863s.004-2.072.196-2.864a.85.85 0 0 1 .66-.645c.446-.083.931-.139 1.447-.175Z" clip-rule="evenodd"/></svg>
